icons/actions/24/office-chart-ring.svg

<?xml version="1.0"?>
<!-- Created with Inkscape (http://www.inkscape.org/) -->
<svg xmlns:dc="http://purl.org/dc/elements/1.1/" xmlns:cc="http://creativecommons.org/ns#" xmlns:rdf="http://www.w3.org/1999/02/22-rdf-syntax-ns#" xmlns:svg="http://www.w3.org/2000/svg" xmlns="http://www.w3.org/2000/svg" xmlns:xlink="http://www.w3.org/1999/xlink" xmlns:sodipodi="http://sodipodi.sourceforge.net/DTD/sodipodi-0.dtd" xmlns:inkscape="http://www.inkscape.org/namespaces/inkscape" width="24" height="24" id="svg3869" version="1.1" inkscape:version="0.91 r13725" sodipodi:docname="office-chart-ring.svg">
  <defs id="defs3871">
    <style type="text/css" id="current-color-scheme">
      .ColorScheme-Text {
        color:#4d4d4d;
      }
      .ColorScheme-Background {
        color:#eff0f1;
      }
      .ColorScheme-Highlight {
        color:#3daee9;
      }
      .ColorScheme-ViewText {
        color:#31363b;
      }
      .ColorScheme-ViewBackground {
        color:#fcfcfc;
      }
      .ColorScheme-ViewHover {
        color:#93cee9;
      }
      .ColorScheme-ViewFocus{
        color:#3daee9;
      }
      .ColorScheme-ButtonText {
        color:#31363b;
      }
      .ColorScheme-ButtonBackground {
        color:#eff0f1;
      }
      .ColorScheme-ButtonHover {
        color:#93cee9;
      }
      .ColorScheme-ButtonFocus{
        color:#3daee9;
      }
      </style>
    <linearGradient gradientTransform="translate(0,-1.9999941)" inkscape:collect="always" xlink:href="#linearGradient4021-3" id="linearGradient4123" gradientUnits="userSpaceOnUse" x1="3" y1="1045.3622" x2="15" y2="1045.3622"/>
    <linearGradient id="linearGradient4021-3">
      <stop id="stop4023-0" offset="0" style="stop-color:#b3b3b3;stop-opacity:1;"/>
      <stop id="stop4025-2" offset="1" style="stop-color:currentColor;stop-opacity:1;" class="ColorScheme-Text"/>
    </linearGradient>
    <clipPath id="clipPath4160" clipPathUnits="userSpaceOnUse">
      <rect y="1023.3622" x="7" height="1" width="1" id="rect4162" style="opacity:1;fill:#f2f2f2;fill-opacity:1;stroke:none;stroke-opacity:1"/>
    </clipPath>
    <clipPath id="clipPath4160-8" clipPathUnits="userSpaceOnUse">
      <rect y="1023.3622" x="7" height="1" width="1" id="rect4162-9" style="opacity:1;fill:#f2f2f2;fill-opacity:1;stroke:none;stroke-opacity:1"/>
    </clipPath>
  </defs>
  <sodipodi:namedview id="base" pagecolor="#ffffff" bordercolor="#666666" borderopacity="1.0" inkscape:pageopacity="0.0" inkscape:pageshadow="2" inkscape:zoom="22.627416" inkscape:cx="5.4926209" inkscape:cy="10.264796" inkscape:document-units="px" inkscape:current-layer="layer1" showgrid="true" fit-margin-top="0" fit-margin-left="0" fit-margin-right="0" fit-margin-bottom="0" inkscape:window-width="1366" inkscape:window-height="709" inkscape:window-x="-4" inkscape:window-y="0" inkscape:window-maximized="1" inkscape:showpageshadow="false" inkscape:snap-bbox="true" inkscape:object-nodes="true">
    <inkscape:grid type="xygrid" id="grid4132"/>
    <sodipodi:guide position="4,18" orientation="18,0" id="guide4138"/>
    <sodipodi:guide position="5,3" orientation="0,18" id="guide4140"/>
    <sodipodi:guide position="20,2.0000174" orientation="-18,0" id="guide4142"/>
    <sodipodi:guide position="2,21" orientation="0,-18" id="guide4144"/>
    <sodipodi:guide position="3,19.000017" orientation="16,0" id="guide4146"/>
    <sodipodi:guide position="2,4" orientation="0,16" id="guide4148"/>
    <sodipodi:guide position="21,20" orientation="-16,0" id="guide4150"/>
    <sodipodi:guide position="2,20" orientation="0,-16" id="guide4152"/>
  </sodipodi:namedview>
  <metadata id="metadata3874">
    <rdf:RDF>
      <cc:Work rdf:about="">
        <dc:format>image/svg+xml</dc:format>
        <dc:type rdf:resource="http://purl.org/dc/dcmitype/StillImage"/>
        <dc:title/>
      </cc:Work>
    </rdf:RDF>
  </metadata>
  <g inkscape:label="Capa 1" inkscape:groupmode="layer" id="layer1" transform="translate(-326,-532.3622)">
    <g transform="translate(-224.28571,-74.28568)" id="layer1-0" inkscape:label="Capa 1">
      <path id="rect4144" transform="translate(551.28571,607.64788)" d="M 10,3.0683594 C 6.0443281,3.5584193 3,6.907464 3,11 c 0,4.092536 3.0443281,7.441581 7,7.931641 l 0,-1.009766 C 6.6006429,17.438059 4,14.537215 4,11 4,7.4627852 6.6006429,4.5619415 10,4.078125 l 0,-1.0097656 z m 2,0 0,1.0097656 C 15.399357,4.5619415 18,7.4627852 18,11 c 0,3.537215 -2.600643,6.438059 -6,6.921875 l 0,1.009766 C 15.955672,18.441581 19,15.092536 19,11 19,6.907464 15.955672,3.5584193 12,3.0683594 Z" style="opacity:1;fill:currentColor;fill-opacity:1;stroke:none;stroke-width:2.79999995;stroke-miterlimit:4;stroke-dasharray:none;stroke-opacity:0.55026455" inkscape:connector-curvature="0" class="ColorScheme-Text"/>
      <path id="rect4149" transform="translate(551.28571,607.64788)" d="m 11,5 c -3.324,0 -6,2.676 -6,6 0,3.324 2.676,6 6,6 3.324,0 6,-2.676 6,-6 0,-0.881776 -0.192482,-1.716033 -0.53125,-2.46875 L 15.6875,9.3125 C 15.877228,9.8417746 16,10.403857 16,11 c 0,2.77 -2.23,5 -5,5 -2.77,0 -5,-2.23 -5,-5 0,-2.77 2.23,-5 5,-5 1.641573,0 3.079708,0.7951359 3.990234,2.0097656 L 15.712891,7.2871094 C 14.616004,5.8947115 12.918061,5 11,5 Z" style="opacity:1;fill:currentColor;fill-opacity:1;stroke:none;stroke-width:2.79999995;stroke-miterlimit:4;stroke-dasharray:none;stroke-opacity:0.55026455" inkscape:connector-curvature="0" class="ColorScheme-Text"/>
      <path id="rect4154" transform="translate(551.28571,607.64788)" d="M 11,7 C 9.892,7 8.8929219,7.4469219 8.1699219,8.1699219 L 8.8769531,8.8769531 C 9.4192031,8.3347031 10.169,8 11,8 c 1.662,0 3,1.338 3,3 0,1.662 -1.338,3 -3,3 C 9.338,14 8,12.662 8,11 8,10.698149 8.056477,10.413074 8.1386719,10.138672 L 7.3574219,9.3574219 C 7.1318349,9.8589963 7,10.412506 7,11 c 0,2.216 1.784,4 4,4 2.216,0 4,-1.784 4,-4 0,-2.216 -1.784,-4 -4,-4 z" style="opacity:1;fill:currentColor;fill-opacity:1;stroke:none;stroke-width:2.79999995;stroke-miterlimit:4;stroke-dasharray:none;stroke-opacity:0.55026455" inkscape:connector-curvature="0" class="ColorScheme-Text"/>
    </g>
  </g>
</svg>

<svg xmlns="http://www.w3.org/2000/svg" viewBox="0 0 24 24">
  <defs id="defs3051">
    <style type="text/css" id="current-color-scheme">
      .ColorScheme-Text {
        color:#4d4d4d;
      }
      .ColorScheme-Highlight {
        color:#3daee9;
      }
      </style>
  </defs>
  <a transform="translate(1,1)">
 <path 
     style="fill:currentColor;fill-opacity:1;stroke:none" 
     d="M 10 3.0683594 C 6.0443281 3.5584193 3 6.907464 3 11 C 3 15.092536 6.0443281 18.441581 10 18.931641 L 10 17.921875 C 6.6006429 17.438059 4 14.537215 4 11 C 4 7.4627852 6.6006429 4.5619415 10 4.078125 L 10 3.0683594 z M 12 3.0683594 L 12 4.078125 C 15.399357 4.5619415 18 7.4627852 18 11 C 18 14.537215 15.399357 17.438059 12 17.921875 L 12 18.931641 C 15.955672 18.441581 19 15.092536 19 11 C 19 6.907464 15.955672 3.5584193 12 3.0683594 z M 11 5 C 7.676 5 5 7.676 5 11 C 5 14.324 7.676 17 11 17 C 14.324 17 17 14.324 17 11 C 17 10.118224 16.807518 9.283967 16.46875 8.53125 L 15.6875 9.3125 C 15.877228 9.8417746 16 10.403857 16 11 C 16 13.77 13.77 16 11 16 C 8.23 16 6 13.77 6 11 C 6 8.23 8.23 6 11 6 C 12.641573 6 14.079708 6.7951359 14.990234 8.0097656 L 15.712891 7.2871094 C 14.616004 5.8947115 12.918061 5 11 5 z M 11 7 C 9.892 7 8.8929219 7.4469219 8.1699219 8.1699219 L 8.8769531 8.8769531 C 9.4192031 8.3347031 10.169 8 11 8 C 12.662 8 14 9.338 14 11 C 14 12.662 12.662 14 11 14 C 9.338 14 8 12.662 8 11 C 8 10.698149 8.0564772 10.413074 8.1386719 10.138672 L 7.3574219 9.3574219 C 7.1318349 9.8589963 7 10.412506 7 11 C 7 13.216 8.784 15 11 15 C 13.216 15 15 13.216 15 11 C 15 8.784 13.216 7 11 7 z "
     class="ColorScheme-Text"
     />
 </a>
</svg>
